!!!OTL: Frisch auf, in Gottes Namen. (1540.)
!!!ARE: Europa, Mitteleuropa, Deutschland
!!!SCT: A0398A
!!!TXL: @@DE
!!!YEM: Copyright 1995, estate of Helmut Schaffrath.
**kern	**text
!! Mixed meters:  4/2; 6/2
*M4/2	*
*met(c)	*
*clefC3	*
*k[]	*
*G:mix	*
!LO:TX:a:t=mixolyd.	!
{1d	Friſch
=1	=1
2d	auff,
2d	in
2d	got-
2d	-tes
=2	=2
*M6/2	*
1A	na-
1A	-men,
2r}	.
{2A	du
=3	=3
1c	wer-
2A	-de
1c	Teut-
4B	-ſche
4A	.
=4	=4
2.G	Na-
4A	.
4B	.
4c/	.
1d	.
4c/	.
4B	.
=5	=5
*M4/2	*
2A	.
2B	.
2A	.
2A	-ti-
=6	=6
!LO:TX:a:t=P:0G in the score:problem	!
!LO:N:vis=0	!
1G}	-on!}
{1d	Für
=7	=7
2d	war
2d	jr
2d	ſolt
2d	euch
=8	=8
*M6/2	*
1A	ſche-
1A	-men,
2r}	.
{2A	das
=9	=9
1c	jr
2A	ewr
1c	gut
4B	lob
4A	laſt
=10	=10
2.G	un-
4A	.
4B	.
4c/	.
1d	.
4c/	.
4B	.
=11	=11
*M4/2	*
2A	.
2B	.
2A	.
2A	-ter-
=12	=12
!LO:TX:a:t=P:0G in the score:problem	!
!LO:N:vis=0	!
1G}	-gon.}
{2r	.
2d	Das
=13	=13
2d	jr
2d	lang
2e	habt
2c	be-
=14	=14
1d	-hal-
1B	-ten
=15	=15
2r}	.
{2c	in
2c	ehrn
2d	vnd
=16	=16
1.e	ri-
4d	.
4c	.
=17	=17
2B	.
2A	.
1B	-ter-
=18	=18
1A	-ſchafft,
2r}	.
{2A	al-
=19	=19
2d	-ſo
2d	gſchach
2B	auch
2B	den
=20	=20
1c	al-
2A}	-ten,
{2A	der
=21	=21
2c/	lieb
2c/	Gott
2A	ſolt
2A	ſein
=22	=22
1d	wal-
1B}	-ten,
=23	=23
{1e	das
2e	ver-
2e	-leyh
=24	=24
*M6/2	*
1d	vns
2c}	ſein
{1d	göt-
4c/	.
4B	.
=25	=25
*M4/2	*
2A	.
2G	.
1A	-lich
=26	=26
1G/ll}	krafft.
==	==
!!!GTL: Einige historisch-politische Lieder
!!!AGN: Romanze, Ballade, Lied, religioeses Lied
!! Forster III. 1549 No. 80
!!!ONB: ESAC (Essen Associative Code) Database: ALTDEU
!!!AMT: irregular
!!!AIN: vox
!!!EED: Helmut Schaffrath
!!!EEV: 1.0
!!!RDF**kern: l = terminal long
!!!AMD: Mixolydian
!!!URL-scan: https://rosdok.uni-rostock.de/mcrviewer/recordIdentifier/rosdok_ppn738218359/iview2/phys_0570.iview2?x=-495.6391625615763&y=601.8034482528456&scale=0.4629418472063854&rotation=0&layout=singlePageLayout&logicalDiv=log_0014
!!!ENC: Anna Maria Matuszewska
!!!EEV: 2024/15/03
*-	*-
